X:1
T:Title
%%score 1 { 2 | 3 }
L:1/8
Q:1/4=97
M:3/4
K:Ab
V:1 treble nm="Grand Piano, Soprano"
V:2 bass nm="Choir Pad, Novi Sad, J. M Stillman 1870"
V:3 bass 
V:1
 [CE][CE] [CE]3 [Ec] | [DB][CA] [DF] [DA]3 | [EG][DF] E3 [EA] | [DB]>[Cc] [EB]4 | %4
w: By~Jairus~Maxson~Stillman,~1870 * * *||||
 [EB][Ec] [Ed]3 [Ed] | [Ec][EB] [Ec] [Ae]3 | [EA]>[EG] [DF]3 [FB] | [EG][DE] [CA]4 | %8
w: ||||
 [Ee]>[Ed] [Ec]2 [Ec]2 | [Ed]>[Ec] [EB]2 [GB]2 | [Ec]>[EB] [EA]3 [EG] | [EA]>[Ec] [EB]4 | %12
w: ||||
 [Ee]>[Ed] [Ec]2 [Ec]2 | [Ed]>[Ec] [EB]2 [GB]2 | [Gc]>[GB] A3 [Ec] | [DB]>[DG] [CA]4- | [CA]4 z2 |] %17
w: |||||
V:2
 A,A, A,3 A, | A,A, A, F,3 | A,A, A,3 A, | G,>A, G,4 | G,A, B,3 B, | A,G, A, C3 | A,>A, A,3 D | %7
 B,B, A,4 | C>B, A,2 A,2 | B,>A, G,2 B,2 | E>D C3 B, | A,>[K:bass]A, G,4 | C>B, A,2 A,2 | %13
 B,>A, G,2 B,2 | E>D C3 A, | G,>B, A,4- | A,4 z2 |] %17
V:3
 A,,A,, A,,3 A,, | A,,A,, D, D,3 | D,D, C,3 C, | B,,>A,, E,4 | E,E, E,3 E, | E,E, z A,3 | %6
 C,>C, D,3 B,, | E,E, A,,4 | E,>E, z2 z2 | G,2 E,2 E,2 | E,>E, A,3 E, | C,>A,, E,4 | E,>E, z2 z2 | %13
 G,2 E,2 E,2 | E,>E, A,4 | E,>E, A,,4- | A,,4 z2 |] %17

